storage/app/icons/tabler/filled/balloon.svg

<!--
version: "2.19"
unicode: "fa84"
-->
<svg
  xmlns="http://www.w3.org/2000/svg"
  width="24"
  height="24"
  viewBox="0 0 24 24"
  fill="currentColor"
>
  <path d="M12 1a7 7 0 0 1 7 7c0 5.457 -3.028 10 -7 10c-3.9 0 -6.89 -4.379 -6.997 -9.703l-.003 -.297l.004 -.24a7 7 0 0 1 6.996 -6.76zm0 4a1 1 0 0 0 0 2l.117 .007a1 1 0 0 1 .883 .993l.007 .117a1 1 0 0 0 1.993 -.117a3 3 0 0 0 -3 -3z" />
  <path d="M12 16a1 1 0 0 1 .993 .883l.007 .117v1a3 3 0 0 1 -2.824 2.995l-.176 .005h-3a1 1 0 0 0 -.993 .883l-.007 .117a1 1 0 0 1 -2 0a3 3 0 0 1 2.824 -2.995l.176 -.005h3a1 1 0 0 0 .993 -.883l.007 -.117v-1a1 1 0 0 1 1 -1z" />
</svg>

<svg xmlns="http://www.w3.org/2000/svg" width="24" height="24" fill="currentColor" viewBox="0 0 24 24"><path d="M12 1a7 7 0 0 1 7 7c0 5.457-3.028 10-7 10-3.9 0-6.89-4.379-6.997-9.703L5 8l.004-.24A7 7 0 0 1 12 1m0 4a1 1 0 0 0 0 2l.117.007A1 1 0 0 1 13 8l.007.117A1 1 0 0 0 15 8a3 3 0 0 0-3-3"/><path d="M12 16a1 1 0 0 1 .993.883L13 17v1a3 3 0 0 1-2.824 2.995L10 21H7a1 1 0 0 0-.993.883L6 22a1 1 0 0 1-2 0 3 3 0 0 1 2.824-2.995L7 19h3a1 1 0 0 0 .993-.883L11 18v-1a1 1 0 0 1 1-1"/></svg>
